!!!!SEGMENT: pl-kk--kk-i-83--004_anerio-giovanni-francesco--missa-pulchra-es-sanctus.krn
!!!cenid: 16xx:1343
!!!COM: Anerio, Giovanni Francesco
!!!COM-rismID: pe30000104
!!!CDT: 1569/07/07-1630/06/11
!!!CNT: Italian
!!!OPR: Missa pulchra es
!!!OTL: Sanctus
!!!OMV: 004
!!!PDT:
!!!AGN: Sacred; Mass
!!!SMS-siglum: PL-Kk
!!!SMS-shelfmark: Kk.I.83
!!!SMS-shelfwork: 001-004 M
!!!SMS-variant:
!!!SMS-altvar:
!!!NIFC-rismSourceID: 1001151647
!!!NIFC-rismChildID: 1001151647
!!!NIFC-islandoraID: pl-kk:2875
!!!URL-pdf-islandora: https://repozytorium.nifc.pl/islandora/object/pl-kk%3A2875/datastream/PDF/view
!!!URL-scan: https://polish.musicsources.pl/pl/lokalizacje/galeria/rekopisy/6143 @EN{Scan on Polish Music Sources Website} @PL{Skany w portalu Dziedzictwo Muzyki Polskiej w otwartym dostępie}
!!!IIIF:
!!!ONB-nifc: UWAGA: części Mszy: 1. Kyrie, 2. Et in terra, 3. Patrem, 4. Sanctus, 5. Benedictus, 6. Agnus Dei
!!!AIN: 2 alto 2 bass 2 soprn 2 tenor
!!!key: C
**kern	**text	**mod-text	**kern	**text	**mod-text	**kern	**text	**mod-text	**kern	**text	**mod-text	**kern	**text	**mod-text	**kern	**text	**mod-text	**kern	**text	**mod-text	**kern	**text	**mod-text
*group2	*	*	*group2	*	*	*group2	*	*	*group2	*	*	*group1	*	*	*group1	*	*	*group1	*	*	*group1	*	*
*part8	*part8	*part8	*part7	*part7	*part7	*part6	*part6	*part6	*part5	*part5	*part5	*part4	*part4	*part4	*part3	*part3	*part3	*part2	*part2	*part2	*part1	*part1	*part1
*staff8	*staff8	*staff8	*staff7	*staff7	*staff7	*staff6	*staff6	*staff6	*staff5	*staff5	*staff5	*staff4	*staff4	*staff4	*staff3	*staff3	*staff3	*staff2	*staff2	*staff2	*staff1	*staff1	*staff1
*I"Baſsus II.	*	*	*I"Tenor 2	*	*	*I"Altus 2.	*	*	*I"Cantus 2.	*	*	*I"Baſsus I.	*	*	*I"Tenor I.	*	*	*I"Altus I.	*	*	*I"Cantus I.	*	*
*mI"Basso II	*	*	*mI"Tenore II	*	*	*mI"Alto II	*	*	*mI"Soprano II	*	*	*mI"Basso I	*	*	*mI"Tenore I	*	*	*mI"Alto I	*	*	*mI"Soprano I	*	*
*I'B 2	*	*	*I'T 2	*	*	*I'A 2	*	*	*I'S 2	*	*	*I'B 1	*	*	*I'T 1	*	*	*I'A 1	*	*	*I'S 1	*	*
*Ibass	*	*	*Itenor	*	*	*Ialto	*	*	*Isoprn	*	*	*Ibass	*	*	*Itenor	*	*	*Ialto	*	*	*Isoprn	*	*
*ICvox	*	*	*ICvox	*	*	*ICvox	*	*	*ICvox	*	*	*ICvox	*	*	*ICvox	*	*	*ICvox	*	*	*ICvox	*	*
*IGcoro	*	*	*IGcoro	*	*	*IGcoro	*	*	*IGcoro	*	*	*IGcoro	*	*	*IGcoro	*	*	*IGcoro	*	*	*IGcoro	*	*
*clefF4	*	*	*clefC4	*	*	*clefC3	*	*	*clefC1	*	*	*clefF4	*	*	*clefC4	*	*	*clefC3	*	*	*clefC1	*	*
*	*	*	*mclefGv2	*	*	*mclefG2	*	*	*mclefG2	*	*	*	*	*	*mclefGv2	*	*	*mclefG2	*	*	*mclefG2	*	*
*k[]	*	*	*k[]	*	*	*k[]	*	*	*k[]	*	*	*k[]	*	*	*k[]	*	*	*k[]	*	*	*k[]	*	*
*C:	*	*	*C:	*	*	*C:	*	*	*C:	*	*	*C:	*	*	*C:	*	*	*C:	*	*	*C:	*	*
*M2/2	*	*	*M2/2	*	*	*M2/2	*	*	*M2/2	*	*	*M2/2	*	*	*M2/2	*	*	*M2/2	*	*	*M2/2	*	*
*met(c|)	*	*	*met(c|)	*	*	*met(c|)	*	*	*met(c|)	*	*	*met(c|)	*	*	*met(c|)	*	*	*met(c|)	*	*	*met(c|)	*	*
*mmet(c)	*	*	*mmet(c)	*	*	*mmet(c)	*	*	*mmet(c)	*	*	*mmet(c)	*	*	*mmet(c)	*	*	*mmet(c)	*	*	*mmet(c)	*	*
=1-	=1-	=1-	=1-	=1-	=1-	=1-	=1-	=1-	=1-	=1-	=1-	=1-	=1-	=1-	=1-	=1-	=1-	=1-	=1-	=1-	=1-	=1-	=1-
*all\right	*	*	*all\right	*	*	*all\right	*	*	*all\right	*	*	*all\right	*	*	*all\right	*	*	*all\right	*	*	*all\right	*	*
00r	.	.	00r	.	.	00r	.	.	00r	.	.	2r	.	.	1E	San-	San-	00r	.	.	00r	.	.
.	.	.	.	.	.	.	.	.	.	.	.	1E	San-	San-	.	.	.	.	.	.	.	.	.
!	!	!	!	!	!	!	!	!	!	!	!	!	!	!	!LO:TX:t=P:problem=kreska pseudotaktowa	!	!	!	!	!	!	!	!
.	.	.	.	.	.	.	.	.	.	.	.	.	.	.	1G	-ctus	-ctus	.	.	.	.	.	.
*	*	*	*	*	*	*	*	*	*	*	*	*2\right	*	*	*	*	*	*	*	*	*	*	*
!	!	!	!	!	!	!	!	!	!	!	!	!LO:TX:t=P:problem=kreska pseudotaktowa	!	!	!	!	!	!	!	!	!	!	!
.	.	.	.	.	.	.	.	.	.	.	.	2E\	-ctus	-ctus	.	.	.	.	.	.	.	.	.
=2-	=2-	=2-	=2-	=2-	=2-	=2-	=2-	=2-	=2-	=2-	=2-	=2-	=2-	=2-	=2-	=2-	=2-	=2-	=2-	=2-	=2-	=2-	=2-
*	*	*	*	*	*	*	*	*	*	*	*	*	*ij	*ij	*	*ij	*ij	*	*	*	*	*	*
.	.	.	.	.	.	.	.	.	.	.	.	2D/	San-	San-	1A	San-	San-	.	.	.	.	.	.
.	.	.	.	.	.	.	.	.	.	.	.	4C/	.	.	.	.	.	.	.	.	.	.	.
!	!	!	!	!	!	!	!	!	!	!	!	!LO:TX:t=P:problem=kreska pseudotaktowa	!	!	!	!	!	!	!	!	!	!	!
.	.	.	.	.	.	.	.	.	.	.	.	4BB/	.	.	.	.	.	.	.	.	.	.	.
.	.	.	.	.	.	.	.	.	.	.	.	4AA/	.	.	1.c	.	.	.	.	.	.	.	.
.	.	.	.	.	.	.	.	.	.	.	.	4BB/	.	.	.	.	.	.	.	.	.	.	.
.	.	.	.	.	.	.	.	.	.	.	.	4C/	-ctus	.	.	.	.	.	.	.	.	.	.
!	!	!	!	!	!	!	!	!	!	!	!	!LO:TX:t=P:problem=kreska pseudotaktowa	!	!	!	!	!	!	!	!	!	!	!
.	.	.	.	.	.	.	.	.	.	.	.	4D/	.	.	.	.	.	.	.	.	.	.	.
=3-	=3-	=3-	=3-	=3-	=3-	=3-	=3-	=3-	=3-	=3-	=3-	=3-	=3-	=3-	=3-	=3-	=3-	=3-	=3-	=3-	=3-	=3-	=3-
!	!	!	!	!	!	!	!	!	!	!	!	!	!	!	!	!	!	!	!	!	!LO:TX:t=P:problem=kreska pseudotaktowa	!	!
00r	.	.	00r	.	.	00r	.	.	00r	.	.	0E	San-	.	.	.	.	2r	.	.	1e	San-	San-
.	.	.	.	.	.	.	.	.	.	.	.	.	.	.	4B\	.	.	1e	San-	San-	.	.	.
.	.	.	.	.	.	.	.	.	.	.	.	.	.	.	4A\	.	.	.	.	.	.	.	.
!	!	!	!	!	!	!	!	!	!	!	!	!	!	!	!	!	!	!	!	!	!LO:TX:t=P:problem=kreska pseudotaktowa	!	!
.	.	.	.	.	.	.	.	.	.	.	.	.	.	.	1B	.	.	.	.	.	1g	-ctus	-ctus
*	*	*	*	*	*	*	*	*	*	*	*	*	*	*	*	*	*	*2\right	*	*	*	*	*
!	!	!	!	!	!	!	!	!	!	!	!	!	!	!	!	!	!	!LO:TX:t=P:problem=kreska pseudotaktowa	!	!	!	!	!
.	.	.	.	.	.	.	.	.	.	.	.	.	.	.	.	.	.	2e\	-ctus	-ctus	.	.	.
=4-	=4-	=4-	=4-	=4-	=4-	=4-	=4-	=4-	=4-	=4-	=4-	=4-	=4-	=4-	=4-	=4-	=4-	=4-	=4-	=4-	=4-	=4-	=4-
!	!	!	!	!	!	!	!	!	!	!	!	!	!	!	!	!	!	!	!	!	!	!	!LO:MO:null:mod=*ij
*	*	*	*	*	*	*	*	*	*	*	*	*	*	*	*	*	*	*	*	*	*	*	*null
!	!	!	!	!	!	!	!	!	!	!	!	!LO:TX:t=P:problem=kreska pseudotaktowa	!	!	!LO:TX:t=P:problem=kreska pseudotaktowa	!	!	!	!	!	!	!	!
.	.	.	.	.	.	.	.	.	.	.	.	0F	-ctus	-ctus	0A	-ctus	-ctus	2d\	San-	San-	1a	.	San-
*	*	*	*	*	*	*	*	*	*	*	*	*	*Xij	*Xij	*	*Xij	*Xij	*	*	*	*	*ij	*ij
.	.	.	.	.	.	.	.	.	.	.	.	.	.	.	.	.	.	4c/	.	.	.	.	.
!	!	!	!	!	!	!	!	!	!	!	!	!	!	!	!	!	!	!LO:TX:t=P:problem=kreska pseudotaktowa	!	!	!	!	!
.	.	.	.	.	.	.	.	.	.	.	.	.	.	.	.	.	.	4B/	.	.	.	.	.
.	.	.	.	.	.	.	.	.	.	.	.	.	.	.	.	.	.	4A/	.	.	1.cc	San-	.
.	.	.	.	.	.	.	.	.	.	.	.	.	.	.	.	.	.	4B/	.	.	.	.	.
.	.	.	.	.	.	.	.	.	.	.	.	.	.	.	.	.	.	4c\	.	.	.	.	.
!	!	!	!	!	!	!	!	!	!	!	!	!	!	!	!	!	!	!LO:TX:t=P:problem=kreska pseudotaktowa	!	!	!	!	!
.	.	.	.	.	.	.	.	.	.	.	.	.	.	.	.	.	.	4d\	.	.	.	.	.
!	!	!	!	!	!	!	!	!	!	!	!	!	!	!	!LO:LB:g=original	!	!	!	!	!	!	!	!
=5-	=5-	=5-	=5-	=5-	=5-	=5-	=5-	=5-	=5-	=5-	=5-	=5-	=5-	=5-	=5-	=5-	=5-	=5-	=5-	=5-	=5-	=5-	=5-
!	!	!	!LO:TX:t=P:problem=kreska pseudotaktowa	!	!	!	!	!	!LO:TX:t=P:problem=kreska pseudotaktowa	!	!	!	!	!	!	!	!	!	!	!	!	!	!
0r	.	.	0r	.	.	0r	.	.	00r	.	.	4C\	San-	San-	2r	.	.	4e\	.	.	.	.	.
.	.	.	.	.	.	.	.	.	.	.	.	4D\	.	.	.	.	.	4f\	.	.	.	.	.
*	*	*	*	*	*	*	*	*	*	*	*	*	*	*	*2\right	*	*	*	*	*	*	*	*
.	.	.	.	.	.	.	.	.	.	.	.	4E\	.	.	2.e\	San-	San-	2.g\	.	.	4b\	.	.
!	!	!	!	!	!	!	!	!	!	!	!	!	!	!	!	!	!	!	!	!	!LO:TX:t=P:problem=kreska pseudotaktowa	!	!
.	.	.	.	.	.	.	.	.	.	.	.	4F\	.	.	.	.	.	.	.	.	4a\	.	.
*	*	*	*	*	*	*	*	*	*	*	*	*	*	*	*	*	*	*	*	*	*2\right	*	*
.	.	.	.	.	.	.	.	.	.	.	.	2G\	.	.	.	.	.	.	.	.	2b\	-ctus	.
.	.	.	.	.	.	.	.	.	.	.	.	.	.	.	4d\	.	.	4f\	.	.	.	.	.
!	!	!	!	!	!	!	!	!	!	!	!	!LO:TX:t=P:problem=kreska pseudotaktowa	!	!	!LO:TX:t=P:problem=kreska pseudotaktowa	!	!	!	!	!	!	!	!
.	.	.	.	.	.	.	.	.	.	.	.	2A\	.	.	2c\	.	.	4e\	.	.	1a\	San-	.
!	!	!	!	!	!	!	!	!	!	!	!	!	!	!	!	!	!	!LO:TX:t=P:problem=kreska pseudotaktowa	!	!	!	!	!
.	.	.	.	.	.	.	.	.	.	.	.	.	.	.	.	.	.	4d\	.	.	.	.	.
!	!	!	!	!	!	!	!	!	!	!	!	!LO:LB:g=original	!	!	!	!	!	!	!	!	!	!	!
=6-	=6-	=6-	=6-	=6-	=6-	=6-	=6-	=6-	=6-	=6-	=6-	=6-	=6-	=6-	=6-	=6-	=6-	=6-	=6-	=6-	=6-	=6-	=6-
!LO:TX:t=P:problem=kreska pseudotaktowa	!	!	!	!	!	!LO:TX:t=P:problem=kreska pseudotaktowa	!	!	!	!	!	!	!	!	!	!	!	!	!	!	!	!	!
1r	.	.	2r	.	.	1r	.	.	.	.	.	1E	.	.	1B	.	.	1e	.	.	.	.	.
*	*	*	*2\right	*	*	*	*	*	*	*	*	*	*	*	*	*	*	*	*	*	*	*	*
.	.	.	2.e\	San-	San-	.	.	.	.	.	.	.	.	.	.	.	.	.	.	.	2g#X\	.	.
!	!	!	!	!	!	!	!	!	!	!	!	!LO:TX:t=P:problem=kreska pseudotaktowa	!	!	!LO:TX:t=P:problem=kreska pseudotaktowa	!	!	!LO:TX:t=P:problem=kreska pseudotaktowa	!	!	!LO:TX:t=P:problem=kreska pseudotaktowa	!	!
2r	.	.	.	.	.	1A	San-	San-	.	.	.	1AA	-ctus	-ctus	1A	-ctus	-ctus	1e	-ctus	-ctus	1a	-ctus	-ctus
.	.	.	4d\	-ctus	.	.	.	.	.	.	.	.	.	.	.	.	.	.	.	.	.	.	.
1A\	San-	San-	4c\	.	.	.	.	.	.	.	.	.	.	.	.	.	.	.	.	.	.	.	.
!	!	!	!LO:TX:t=P:problem=kreska pseudotaktowa	!	!	!	!	!	!	!	!	!	!	!	!	!	!	!	!	!	!	!	!
.	.	.	4B\	.	.	.	.	.	.	.	.	.	.	.	.	.	.	.	.	.	.	.	.
=7-	=7-	=7-	=7-	=7-	=7-	=7-	=7-	=7-	=7-	=7-	=7-	=7-	=7-	=7-	=7-	=7-	=7-	=7-	=7-	=7-	=7-	=7-	=7-
!	!	!	!	!	!LO:MO:null:mod=*null	!	!	!	!	!	!	!	!	!	!	!	!	!	!	!	!	!	!
*	*	*	*	*ij	*ij	*	*	*	*	*	*	*	*	*	*	*	*	*	*	*	*	*	*
!	!	!	!	!	!	!	!	!	!LO:TX:t=P:problem=kreska pseudotaktowa	!	!	!	!	!	!	!	!	!	!	!	!	!	!
!	!	!	!	!	!	!LO:TX:t=P:problem=kreska pseudotaktowa	!	!	!	!	!	!	!	!	!	!	!	!	!	!	!	!	!
.	.	.	4A\	San-	.	1c	.	.	1e	San-	San-	00r	.	.	00r	.	.	00r	.	.	00r	.	.
.	.	.	4B\	.	.	.	.	.	.	.	.	.	.	.	.	.	.	.	.	.	.	.	.
*2\right	*	*	*	*	*	*	*	*	*	*	*	*	*	*	*	*	*	*	*	*	*	*	*
!LO:TX:t=P:problem=kreska pseudotaktowa	!	!	!	!	!	!	!	!	!	!	!	!	!	!	!	!	!	!	!	!	!	!	!
2A\	-ctus	-ctus	4c\	.	.	.	.	.	.	.	.	.	.	.	.	.	.	.	.	.	.	.	.
.	.	.	4A\	.	.	.	.	.	.	.	.	.	.	.	.	.	.	.	.	.	.	.	.
*	*ij	*ij	*	*	*	*	*	*	*	*	*	*	*	*	*	*	*	*	*	*	*	*	*
2G\	San-	San-	2B\	.	.	1d	-ctus	-ctus	2g/	.	-ctus	.	.	.	.	.	.	.	.	.	.	.	.
!	!	!	!LO:TX:t=P:problem=kreska pseudotaktowa	!	!	!	!	!	!	!	!	!	!	!	!	!	!	!	!	!	!	!	!
4F\	.	.	2c\	.	.	.	.	.	2ryy	.	.	.	.	.	.	.	.	.	.	.	.	.	.
!LO:TX:t=P:problem=kreska pseudotaktowa	!	!	!	!	!	!	!	!	!	!	!	!	!	!	!	!	!	!	!	!	!	!	!
4E\	.	.	.	.	.	.	.	.	.	.	.	.	.	.	.	.	.	.	.	.	.	.	.
=8-	=8-	=8-	=8-	=8-	=8-	=8-	=8-	=8-	=8-	=8-	=8-	=8-	=8-	=8-	=8-	=8-	=8-	=8-	=8-	=8-	=8-	=8-	=8-
*	*	*	*	*	*	*	*ij	*ij	*	*	*	*	*	*	*	*	*	*	*	*	*	*	*
4D\	.	.	1d	-ctus	-ctus	1.f	San-	San-	2ryy	.	.	.	.	.	.	.	.	.	.	.	.	.	.
4E\	.	.	.	.	.	.	.	.	.	.	.	.	.	.	.	.	.	.	.	.	.	.	.
4F\	-ctus	.	.	.	.	.	.	.	1a	.	San-	.	.	.	.	.	.	.	.	.	.	.	.
!LO:TX:t=P:problem=kreska pseudotaktowa	!	!	!	!	!	!	!	!	!	!	!	!	!	!	!	!	!	!	!	!	!	!	!
4G\	.	.	.	.	.	.	.	.	.	.	.	.	.	.	.	.	.	.	.	.	.	.	.
!	!	!	!LO:TX:t=P:problem=kreska pseudotaktowa	!	!	!	!	!	!	!	!	!	!	!	!	!	!	!	!	!	!	!	!
0A	San-	.	0c	San-	San-	.	.	.	.	.	.	.	.	.	.	.	.	.	.	.	.	.	.
.	.	.	.	.	.	4e\	.	.	1a\	-ctus	-ctus	.	.	.	.	.	.	.	.	.	.	.	.
!	!	!	!	!	!	!LO:TX:t=P:problem=kreska pseudotaktowa	!	!	!	!	!	!	!	!	!	!	!	!	!	!	!	!	!
.	.	.	.	.	.	4d\	.	.	.	.	.	.	.	.	.	.	.	.	.	.	.	.	.
=9-	=9-	=9-	=9-	=9-	=9-	=9-	=9-	=9-	=9-	=9-	=9-	=9-	=9-	=9-	=9-	=9-	=9-	=9-	=9-	=9-	=9-	=9-	=9-
*	*	*	*	*	*	*2\right	*	*	*	*	*	*	*	*	*	*	*	*	*	*	*	*	*
!	!	!	!	!	!	!	!	!	!	!	!	!LO:TX:t=P:problem=kreska pseudotaktowa	!	!	!	!	!	!	!	!	!	!	!
.	.	.	.	.	.	2e\	.	.	.	.	.	1r	.	.	0r	.	.	1r	.	.	0r	.	.
*	*	*	*	*	*	*	*	*	*	*ij	*ij	*	*	*	*	*	*	*	*	*	*	*	*
.	.	.	.	.	.	2f#X\	.	.	1cc	San-	San-	.	.	.	.	.	.	.	.	.	.	.	.
*	*	*	*	*	*	*	*	*	*	*	*	*	*	*	*	*	*	*	*ij	*ij	*	*	*
!LO:TX:t=P:problem=kreska pseudotaktowa	!	!	!	!	!	!	!	!	!	!	!	!	!	!	!	!	!	!	!	!	!	!	!
1G	.	.	1d	.	.	2g\	.	.	.	.	.	2r	.	.	.	.	.	2.g\	San-	San-	.	.	.
*	*	*	*	*	*	*	*	*	*2\right	*	*	*	*	*	*	*	*	*	*	*	*	*	*
!	!	!	!	!	!	!LO:TX:t=P:problem=kreska pseudotaktowa	!	!	!LO:TX:t=P:problem=kreska pseudotaktowa	!	!	!	!	!	!	!	!	!	!	!	!	!	!
.	.	.	.	.	.	2d\	.	.	2b\	.	.	2.G\	San-	San-	.	.	.	.	.	.	.	.	.
!	!	!	!	!	!	!	!	!	!	!	!	!	!	!	!	!	!	!LO:TX:t=P:problem=kreska pseudotaktowa	!	!	!	!	!
.	.	.	.	.	.	.	.	.	.	.	.	.	.	.	.	.	.	4f\	.	.	.	.	.
=10-	=10-	=10-	=10-	=10-	=10-	=10-	=10-	=10-	=10-	=10-	=10-	=10-	=10-	=10-	=10-	=10-	=10-	=10-	=10-	=10-	=10-	=10-	=10-
*	*	*	*	*	*	*	*	*	*	*	*	*	*	*	*	*ij	*ij	*	*	*	*	*	*
0C	-ctus	-ctus	2c\	.	.	1e	-ctus	-ctus	2cc\	.	.	.	.	.	2.C/	San-	San-	4e\	.	.	2r	.	.
.	.	.	.	.	.	.	.	.	.	.	.	4F\	.	.	.	.	.	4d\	.	.	.	.	.
.	.	.	1G	-ctus	-ctus	.	.	.	2.ee\	.	.	4E\	.	.	.	.	.	4c/	.	.	2.cc\	San-	San-
!	!	!	!	!	!	!	!	!	!	!	!	!LO:TX:t=P:problem=kreska pseudotaktowa	!	!	!LO:TX:t=P:problem=kreska pseudotaktowa	!	!	!	!	!	!	!	!
.	.	.	.	.	.	.	.	.	.	.	.	4D\	.	.	4D/	.	.	4B/	.	.	.	.	.
.	.	.	.	.	.	0g	San-	San-	.	.	.	1C	.	.	4E/	.	.	2c/	.	.	.	.	.
.	.	.	.	.	.	.	.	.	4dd\	.	.	.	.	.	4F/	.	.	.	.	.	8b\L	.	.
.	.	.	.	.	.	.	.	.	.	.	.	.	.	.	.	.	.	.	.	.	8a\J	.	.
!	!	!	!LO:TX:t=P:problem=kreska pseudotaktowa	!	!	!	!	!	!LO:TX:t=P:problem=kreska pseudotaktowa	!	!	!	!	!	!	!	!	!LO:TX:t=P:problem=kreska pseudotaktowa	!	!	!	!	!
.	.	.	2c\	San-	San-	.	.	.	2cc\	.	.	.	.	.	1G/	.	.	2e\	.	.	4g\	.	.
!	!	!	!	!	!	!	!	!	!	!	!	!	!	!	!	!	!	!	!	!	!LO:TX:t=P:problem=kreska pseudotaktowa	!	!
.	.	.	.	.	.	.	.	.	.	.	.	.	.	.	.	.	.	.	.	.	4a\	.	.
=11-	=11-	=11-	=11-	=11-	=11-	=11-	=11-	=11-	=11-	=11-	=11-	=11-	=11-	=11-	=11-	=11-	=11-	=11-	=11-	=11-	=11-	=11-	=11-
*lig	*	*	*	*	*	*	*	*	*	*	*	*	*	*	*	*	*	*	*	*	*	*	*
!	!	!	!	!	!	!	!	!	!	!	!	!LO:TX:t=P:problem=kreska pseudotaktowa	!	!	!	!	!	!	!	!	!	!	!
1G	San-	San-	2B\	.	.	.	.	.	1dd	-ctus	-ctus	1GG	.	.	.	.	.	1.d	.	.	1b	.	.
!	!	!	!	!	!	!	!	!	!	!	!	!	!	!	!LO:TX:t=P:problem=kreska pseudotaktowa	!	!	!	!	!	!	!	!
.	.	.	2G/	.	.	.	.	.	.	.	.	.	.	.	2C/	-ctus	-ctus	.	.	.	.	.	.
!	!	!	!	!	!	!LO:TX:t=P:problem=kreska pseudotaktowa	!	!	!LO:TX:t=P:problem=kreska pseudotaktowa	!	!	!	!	!	!	!	!	!	!	!	!LO:TX:t=P:problem=kreska pseudotaktowa	!	!
1D	.	.	1A	.	.	1f	.	.	1dd	San-	San-	1D	.	.	2.F/	San-	San-	.	.	.	0a	-ctus	-ctus
!	!	!	!	!	!	!	!	!	!	!	!	!	!	!	!	!	!	!LO:TX:t=P:problem=kreska pseudotaktowa	!	!	!	!	!
.	.	.	.	.	.	.	.	.	.	.	.	.	.	.	.	.	.	2A/	.	.	.	.	.
.	.	.	.	.	.	.	.	.	.	.	.	.	.	.	8E/L	.	.	.	.	.	.	.	.
.	.	.	.	.	.	.	.	.	.	.	.	.	.	.	8D/J	.	.	.	.	.	.	.	.
*Xlig	*	*	*	*	*	*	*	*	*	*	*	*	*	*	*	*	*	*	*	*	*	*Xij	*Xij
=12-	=12-	=12-	=12-	=12-	=12-	=12-	=12-	=12-	=12-	=12-	=12-	=12-	=12-	=12-	=12-	=12-	=12-	=12-	=12-	=12-	=12-	=12-	=12-
*lig	*	*	*	*	*	*	*	*	*	*	*	*	*	*	*	*	*	*	*	*	*	*	*
!	!	!	!LO:TX:t=P:problem=kreska pseudotaktowa	!	!	!	!	!	!	!	!	!LO:TX:t=P:problem=kreska pseudotaktowa	!	!	!	!	!	!LO:TX:t=P:problem=kreska pseudotaktowa	!	!	!	!	!
1A	.	.	1c	-ctus	-ctus	4e\	-ctus	.	4cc\	.	.	1AA	-ctus	-ctus	1E	-ctus	-ctus	1A	-ctus	-ctus	.	.	.
*	*	*	*	*	*	*	*	*	*	*	*	*	*	*	*	*Xij	*Xij	*	*Xij	*Xij	*	*	*
.	.	.	.	.	.	4d\	.	.	4a\	.	.	.	.	.	.	.	.	.	.	.	.	.	.
.	.	.	.	.	.	4e\	.	.	1cc	.	.	.	.	.	.	.	.	.	.	.	.	.	.
.	.	.	.	.	.	4f\	.	.	.	.	.	.	.	.	.	.	.	.	.	.	.	.	.
!	!	!	!	!	!	!	!	!	!	!	!	!	!	!	!LO:TX:t=P:problem=kreska pseudotaktowa	!	!	!	!	!	!	!	!
1G	.	.	1d	San-	San-	1g	San-	.	.	.	.	1r	.	.	1r	.	.	1r	.	.	1r	.	.
.	.	.	.	.	.	.	.	.	2b\	.	.	.	.	.	.	.	.	.	.	.	.	.	.
*Xlig	*	*	*	*	*	*	*	*	*	*	*	*	*	*	*	*	*	*	*	*	*	*	*
=13-	=13-	=13-	=13-	=13-	=13-	=13-	=13-	=13-	=13-	=13-	=13-	=13-	=13-	=13-	=13-	=13-	=13-	=13-	=13-	=13-	=13-	=13-	=13-
!	!	!	!LO:TX:t=P:problem=kreska pseudotaktowa	!	!	!LO:TX:t=P:problem=kreska pseudotaktowa	!	!	!LO:TX:t=P:problem=kreska pseudotaktowa	!	!	!	!	!	!	!	!	!	!	!	!	!	!
1C	-ctus	-ctus	1c	-ctus	-ctus	1e	-ctus	-ctus	1cc	-ctus	-ctus	2r	.	.	2r	.	.	2r	.	.	2r	.	.
*	*Xij	*Xij	*	*Xij	*Xij	*	*Xij	*Xij	*	*Xij	*Xij	*	*	*	*	*	*	*	*	*	*	*	*
.	.	.	.	.	.	.	.	.	.	.	.	2.C/	Do-	Do-	2.c\	Do-	Do-	2.e\	Do-	Do-	2.g/	Do-	Do-
00r	.	.	00r	.	.	00r	.	.	00r	.	.	.	.	.	.	.	.	.	.	.	.	.	.
.	.	.	.	.	.	.	.	.	.	.	.	4C/	-mi-	-mi-	4c\	-mi-	-mi-	4e\	-mi-	-mi-	4g/	-mi-	-mi-
!	!	!	!	!	!	!	!	!	!	!	!	!	!	!	!LO:TX:t=P:problem=kreska pseudotaktowa	!	!	!LO:TX:t=P:problem=kreska pseudotaktowa	!	!	!LO:TX:t=P:problem=kreska pseudotaktowa	!	!
!	!	!	!	!	!	!	!	!	!	!	!	!	!	!	!	!	!	!LO:LB:g=original	!	!	!	!	!
.	.	.	.	.	.	.	.	.	.	.	.	2C/	-nus	-nus	2c\	-nus	-nus	2e\	-nus	-nus	2g/	-nus	-nus
=14-	=14-	=14-	=14-	=14-	=14-	=14-	=14-	=14-	=14-	=14-	=14-	=14-	=14-	=14-	=14-	=14-	=14-	=14-	=14-	=14-	=14-	=14-	=14-
.	.	.	.	.	.	.	.	.	.	.	.	2G\	De-	De-	2B\	De-	De-	2d\	De-	De-	2g/	De-	De-
!	!	!	!	!	!	!	!	!	!	!	!	!LO:TX:t=P:problem=kreska pseudotaktowa	!	!	!	!	!	!	!	!	!LO:TX:t=P:problem=kreska pseudotaktowa	!	!
.	.	.	.	.	.	.	.	.	.	.	.	2E\	.	-us	1c	-us	-us	2e\	-us	-us	2g/	-us	-us
!	!	!	!	!	!	!	!	!	!	!	!	!	!	!	!	!	!	!	!	!	!LO:LB:g=original	!	!
*	*	*	*	*	*	*	*	*	*	*	*	*	*	*	*	*	*	*lig	*	*	*	*	*
.	.	.	.	.	.	.	.	.	.	.	.	2F\	-us	Sa-	.	.	.	1d	Sab-	Sa-	2a\	Sa-	Sa-
.	.	.	.	.	.	.	.	.	.	.	.	2G\	.	.	2.B\	Sa-	Sa-	.	.	.	4g/	.	.
.	.	.	.	.	.	.	.	.	.	.	.	.	.	.	.	.	.	.	.	.	4f/	.	.
=15-	=15-	=15-	=15-	=15-	=15-	=15-	=15-	=15-	=15-	=15-	=15-	=15-	=15-	=15-	=15-	=15-	=15-	=15-	=15-	=15-	=15-	=15-	=15-
*	*	*	*	*	*	*	*	*	*	*	*	*lig	*	*	*	*	*	*col	*	*	*	*	*
.	.	.	.	.	.	.	.	.	.	.	.	1A	ſab-	.	.	.	.	2.c\	.	.	1.e	.	.
.	.	.	.	.	.	.	.	.	.	.	.	.	.	.	4A\	.	.	.	.	.	.	.	.
.	.	.	.	.	.	.	.	.	.	.	.	.	.	.	1A	-ba-	.	.	.	.	.	.	.
*	*	*	*	*	*	*	*	*	*	*	*	*	*	*	*	*	*	*Xlig	*	*	*	*	*
.	.	.	.	.	.	.	.	.	.	.	.	.	.	.	.	.	.	8B/L	.	.	.	.	.
.	.	.	.	.	.	.	.	.	.	.	.	.	.	.	.	.	.	8A/J	.	.	.	.	.
*	*	*	*	*	*	*	*	*	*	*	*	*col	*	*	*	*	*	*Xcol	*	*	*	*	*
!LO:TX:t=P:problem=kreska pseudotaktowa	!	!	!LO:TX:t=P:problem=kreska pseudotaktowa	!	!	!	!	!	!	!	!	!	!	!	!	!	!	!LO:TX:t=P:problem=kreska pseudotaktowa	!	!	!	!	!
1r	.	.	1r	.	.	1r	.	.	2r	.	.	2.E\	.	.	.	.	.	2.B/	-ba-	.	.	.	.
!	!	!	!	!	!	!	!	!	!LO:TX:t=P:problem=kreska pseudotaktowa	!	!	!	!	!	!	!	!	!	!	!	!	!	!
.	.	.	.	.	.	.	.	.	2ee\	Ple-	Ple-	.	.	.	2G#X/	.	-ba-	.	.	.	2e/	-ba-	-ba-
*	*	*	*	*	*	*	*	*	*	*	*	*Xlig	*	*	*	*	*	*	*	*	*	*	*
.	.	.	.	.	.	.	.	.	.	.	.	4E\	-ba-	-ba-	.	.	.	4B/	-oth	-ba-	.	.	.
*	*	*	*	*	*	*	*	*	*	*	*	*Xcol	*	*	*	*	*	*	*	*	*	*	*
=16-	=16-	=16-	=16-	=16-	=16-	=16-	=16-	=16-	=16-	=16-	=16-	=16-	=16-	=16-	=16-	=16-	=16-	=16-	=16-	=16-	=16-	=16-	=16-
!	!	!	!	!	!	!LO:TX:t=P:problem=kreska pseudotaktowa	!	!	!	!	!	!LO:TX:t=P:problem=kreska pseudotaktowa	!	!	!LO:TX:t=P:problem=kreska pseudotaktowa	!	!	!LO:TX:t=P:problem=kreska pseudotaktowa	!	!	!LO:TX:t=P:problem=kreska pseudotaktowa	!	!
1A	Ple-	Ple-	2r	.	.	1e	Ple-	Ple-	1cc	-ni	-ni	1AA	-oth	-oth	1A	-oth	-oth	1c	.	-oth	1e	-oth	-oth
!	!	!	!LO:TX:t=P:problem=kreska pseudotaktowa	!	!	!	!	!	!	!	!	!	!	!	!	!	!	!	!	!	!	!	!
.	.	.	2A\	Ple-	Ple-	.	.	.	.	.	.	.	.	.	.	.	.	.	.	.	.	.	.
2G#X\	-ni	-ni	2B\	-ni	-ni	2e\	-ni	-ni	2b\	ſunt	sunt	1r	.	.	1r	.	.	1r	.	.	1r	.	.
!LO:TX:t=P:problem=kreska pseudotaktowa	!	!	!	!	!	!LO:TX:t=P:problem=kreska pseudotaktowa	!	!	!	!	!	!	!	!	!	!	!	!	!	!	!	!	!
2A\	ſunt	sunt	2.c\	ſunt	sunt	2e\	ſunt	sunt	4a\	C(ae)-	cae-	.	.	.	.	.	.	.	.	.	.	.	.
!	!	!	!	!	!	!	!	!	!LO:TX:t=P:problem=kreska pseudotaktowa	!	!	!	!	!	!	!	!	!	!	!	!	!	!
.	.	.	.	.	.	.	.	.	4b\	.	.	.	.	.	.	.	.	.	.	.	.	.	.
=17-	=17-	=17-	=17-	=17-	=17-	=17-	=17-	=17-	=17-	=17-	=17-	=17-	=17-	=17-	=17-	=17-	=17-	=17-	=17-	=17-	=17-	=17-	=17-
4AA/	C(ae)-	cae-	.	.	.	0e	C(ae)-	cae-	4cc\	.	.	2r	.	.	1A	Ple-	Ple-	1c	Ple-	Ple-	1cc	Ple-	Ple-
4BB/	.	.	4B\	.	.	.	.	.	4dd\	.	.	.	.	.	.	.	.	.	.	.	.	.	.
!	!	!	!LO:TX:t=P:problem=kreska pseudotaktowa	!	!	!	!	!	!	!	!	!	!	!	!	!	!	!	!	!	!	!	!
4C/	.	.	2A\	C(ae)-	cae-	.	.	.	1ee	-li	.	2A\	Ple-	Ple-	.	.	.	.	.	.	.	.	.
4AA/	.	.	.	.	.	.	.	.	.	.	.	.	.	.	.	.	.	.	.	.	.	.	.
!LO:LB:g=original	!	!	!	!	!	!	!	!	!	!	!	!	!	!	!	!	!	!LO:TX:t=P:problem=kreska pseudotaktowa	!	!	!	!	!
2E\	.	.	2B\	-li	.	.	.	.	.	.	.	2G#X\	-ni	-ni	2E/	-ni	-ni	1e	-ni	-ni	2b\	-ni	-ni
!	!	!	!	!	!LO:MO:null:mod=*null	!	!	!	!	!	!	!	!	!	!	!	!	!	!	!	!	!	!
*	*	*	*	*ij	*ij	*	*	*	*	*	*	*	*	*	*	*	*	*	*	*	*	*	*
!LO:TX:t=P:problem=kreska pseudotaktowa	!	!	!LO:LB:g=original	!	!	!	!	!	!LO:TX:t=P:problem=kreska pseudotaktowa	!	!	!LO:TX:t=P:problem=kreska pseudotaktowa	!	!	!LO:TX:t=P:problem=kreska pseudotaktowa	!	!	!	!	!	!LO:TX:t=P:problem=kreska pseudotaktowa	!	!
2AA/	-li	-li	2A/	Ple-	-li	.	.	.	2ee\	.	-li	2A\	ſunt	sunt	2A/	ſunt	sunt	.	.	.	2cc#X\	ſunt	sunt
!	!	!	!	!	!	!	!	!	!	!	!	!	!	!	!LO:LB:g=original	!	!	!	!	!	!	!	!
=18-	=18-	=18-	=18-	=18-	=18-	=18-	=18-	=18-	=18-	=18-	=18-	=18-	=18-	=18-	=18-	=18-	=18-	=18-	=18-	=18-	=18-	=18-	=18-
*	*ij	*ij	*	*	*	*	*	*	*	*	*	*	*	*	*	*	*	*	*	*	*	*	*
!	!	!	!	!	!	!LO:TX:t=P:problem=kreska pseudotaktowa	!	!	!	!	!	!	!	!	!	!	!	!LO:SIC:o=1f,	!	!	!	!	!
1D	Ple-	Ple-	0G	.	Ple-	1d	-li	-li	2r	.	.	4D\	C(ae)-	cae-	4F/	C(ae)-	cae-	1f	ſunt	sunt	1dd	C(ae)-	cae-
.	.	.	.	.	.	.	.	.	.	.	.	4E\	.	.	4G/	.	.	.	.	.	.	.	.
*	*	*	*	*	*	*	*	*	*	*ij	*ij	*	*	*	*	*	*	*	*	*	*	*	*
!	!	!	!	!	!	!	!	!	!LO:PB:g=original	!	!	!	!	!	!	!	!	!	!	!	!	!	!
.	.	.	.	.	.	.	.	.	1g	ple-	Ple-	4F\	.	.	1A	.	.	.	.	.	.	.	.
.	.	.	.	.	.	.	.	.	.	.	.	4D\	.	.	.	.	.	.	.	.	.	.	.
!	!	!	!	!	!	!LO:PB:g=original	!	!	!	!	!	!	!	!	!	!	!	!	!	!	!	!	!
2C#X/	-ni	-ni	.	.	.	2r	.	.	.	.	.	2A\	.	.	.	.	.	2e\	C(ae)-	cae-	2ee\	-li	-li
*	*	*	*	*	*	*	*ij	*ij	*	*	*	*	*	*	*	*	*	*	*	*	*	*ij	*ij
!LO:TX:t=P:problem=kreska pseudotaktowa	!	!	!	!	!	!	!	!	!LO:TX:t=P:problem=kreska pseudotaktowa	!	!	!LO:TX:t=P:problem=kreska pseudotaktowa	!	!	!LO:TX:t=P:problem=kreska pseudotaktowa	!	!	!LO:TX:t=P:problem=kreska pseudotaktowa	!	!	!	!	!
!	!	!	!	!	!	!	!	!	!	!	!	!LO:LB:g=original	!	!	!	!	!	!	!	!	!	!	!
2D/	ſunt	sunt	.	.	.	1d\	Ple-	Ple-	2a\	-ni	-ni	2D/	-li	-li	2A/	-li	-li	2f#X\	-li	-li	2.dd\	Ple-	Ple-
=19-	=19-	=19-	=19-	=19-	=19-	=19-	=19-	=19-	=19-	=19-	=19-	=19-	=19-	=19-	=19-	=19-	=19-	=19-	=19-	=19-	=19-	=19-	=19-
*	*	*	*	*	*	*	*	*	*	*	*	*	*ij	*ij	*	*	*	*	*	*	*	*	*
4GG/	C(ae)-	cae-	2.G/	.	.	.	.	.	4b\	ſunt	sunt	1G	Ple-	Ple-	2r	.	.	1g	et	et	.	.	.
4AA/	.	.	.	.	.	.	.	.	4cc\	.	.	.	.	.	.	.	.	.	.	.	4cc\	.	.
*	*	*	*	*	*	*	*	*	*	*	*	*	*	*	*	*ij	*ij	*	*	*	*	*	*
!	!	!	!	!	!	!LO:TX:t=P:problem=kreska pseudotaktowa	!	!	!	!	!	!	!	!	!	!	!	!	!	!	!LO:TX:t=P:problem=kreska pseudotaktowa	!	!
4BB/	.	.	.	.	.	2d\	-ni	-ni	1dd	.	.	.	.	.	2G/	Ple-	Ple-	.	.	.	2b\	.	.
!	!	!	!LO:TX:t=P:problem=kreska pseudotaktowa	!	!	!	!	!	!	!	!	!	!	!	!	!	!	!	!	!	!	!	!
4GG/	.	.	4B\	.	.	.	.	.	.	.	.	.	.	.	.	.	.	.	.	.	.	.	.
2D/	.	.	2A\	.	.	1d	ſunt	sunt	.	.	.	2F#X\	-ni	-ni	2D/	-ni	-ni	2a\	.	.	2dd\	.	.
!LO:TX:t=P:problem=kreska pseudotaktowa	!	!	!	!	!	!	!	!	!	!	!	!LO:TX:t=P:problem=kreska pseudotaktowa	!	!	!LO:TX:t=P:problem=kreska pseudotaktowa	!	!	!	!	!	!	!	!
2GG/	-li	-li	2B\	.	.	.	.	.	2dd\	C(ae)-	cae-	2G\	ſunt	sunt	2G/	ſunt	sunt	4g\	.	.	2b\	.	.
!	!	!	!	!	!	!	!	!	!	!	!	!	!	!	!	!	!	!LO:TX:t=P:problem=kreska pseudotaktowa	!	!	!	!	!
.	.	.	.	.	.	.	.	.	.	.	.	.	.	.	.	.	.	4f\	.	.	.	.	.
=20-	=20-	=20-	=20-	=20-	=20-	=20-	=20-	=20-	=20-	=20-	=20-	=20-	=20-	=20-	=20-	=20-	=20-	=20-	=20-	=20-	=20-	=20-	=20-
!	!	!	!	!	!	!LO:TX:t=P:problem=kreska pseudotaktowa	!	!	!LO:TX:t=P:problem=kreska pseudotaktowa	!	!	!	!	!	!	!	!	!	!	!	!LO:TX:t=P:problem=kreska pseudotaktowa	!	!
1C	Ple-	Ple-	0G	-ni	-ni	1c	C(ae)-	cae-	1ee	-li	-li	4C\	C(ae)-	cae-	4E/	C(ae)-	cae-	1g	ter-	ter-	1cc	.	.
*	*	*	*	*	*	*	*	*	*	*Xij	*Xij	*	*	*	*	*	*	*	*	*	*	*	*
.	.	.	.	.	.	.	.	.	.	.	.	4D\	.	.	4F/	.	.	.	.	.	.	.	.
.	.	.	.	.	.	.	.	.	.	.	.	4E\	.	.	4G/	.	.	.	.	.	.	.	.
!	!	!	!	!	!	!	!	!	!	!	!	!	!	!	!LO:TX:t=P:problem=kreska pseudotaktowa	!	!	!	!	!	!	!	!
.	.	.	.	.	.	.	.	.	.	.	.	4C\	.	.	4A/	.	.	.	.	.	.	.	.
!	!	!	!	!	!	!	!	!	!	!	!	!	!	!	!	!	!	!LO:TX:t=P:problem=kreska pseudotaktowa	!	!	!	!	!
2BB/	-ni	-ni	.	.	.	2d\	.	.	2r	.	.	2G\	.	.	2B\	.	.	1g	-ra	-ra	2dd\	.	.
!LO:TX:t=P:problem=kreska pseudotaktowa	!	!	!	!	!	!	!	!	!LO:TX:t=P:problem=kreska pseudotaktowa	!	!	!LO:TX:t=P:problem=kreska pseudotaktowa	!	!	!	!	!	!	!	!	!	!	!
2C/	ſunt	sunt	.	.	.	2c\	.	.	2cc\	ſunt	sunt	2C/	-li	-li	4G/	-li	-li	.	.	.	2ee\	.	.
.	.	.	.	.	.	.	.	.	.	.	.	.	.	.	2c\	Ple-	Ple-	.	.	.	.	.	.
=21-	=21-	=21-	=21-	=21-	=21-	=21-	=21-	=21-	=21-	=21-	=21-	=21-	=21-	=21-	=21-	=21-	=21-	=21-	=21-	=21-	=21-	=21-	=21-
*	*	*	*	*	*	*	*	*	*	*	*	*	*	*	*	*	*	*	*ij	*ij	*	*	*
!	!	!	!LO:TX:t=P:problem=kreska pseudotaktowa	!	!	!LO:TX:t=P:problem=kreska pseudotaktowa	!	!	!	!	!	!	!	!	!	!	!	!	!	!	!	!	!
4FF/	C(ae)-	cae-	1A	ſunt	sunt	0c	-li	-li	4a\	C(ae)-	cae-	2r	.	.	.	.	.	1f	Ple-	Ple-	1cc	-ni	-ni
*	*	*	*	*	*	*	*Xij	*Xij	*	*	*	*	*	*	*	*	*	*	*	*	*	*	*
4GG/	.	.	.	.	.	.	.	.	4b\	.	.	.	.	.	4B\	-ni	-ni	.	.	.	.	.	.
!	!	!	!	!	!	!	!	!	!	!	!	!	!	!	!LO:TX:t=P:problem=kreska pseudotaktowa	!	!	!	!	!	!	!	!
4AA/	.	.	.	.	.	.	.	.	4cc\	.	.	2F\	Ple-	Ple-	2A\	ſunt	sunt	.	.	.	.	.	.
!	!	!	!	!	!	!	!	!	!LO:TX:t=P:problem=kreska pseudotaktowa	!	!	!	!	!	!	!	!	!	!	!	!	!	!
4FF/	.	.	.	.	.	.	.	.	4dd\	.	.	.	.	.	.	.	.	.	.	.	.	.	.
!	!	!	!	!	!	!	!	!	!	!	!	!	!	!	!	!	!	!	!	!	!LO:TX:t=P:problem=kreska pseudotaktowa	!	!
2C/	.	.	2G/	C(ae)-	cae-	.	.	.	2ee\	-li	-li	2E\	-ni	-ni	2c\	C(ae)-	cae-	2g\	-ni	-ni	1cc	sunt	sunt
*	*	*	*	*	*	*	*	*	*	*ij	*ij	*	*	*	*	*	*	*	*	*	*	*	*
!LO:TX:t=P:problem=kreska pseudotaktowa	!	!	!	!	!	!	!	!	!	!	!	!LO:TX:t=P:problem=kreska pseudotaktowa	!	!	!LO:TX:t=P:problem=kreska pseudotaktowa	!	!	!	!	!	!	!	!
2FF/	-li	-li	2A/	.	.	.	.	.	2.a\	C(ae)-	cae-	2F\	ſunt	sunt	2A/	-li	-li	4f\	.	.	.	.	.
*	*Xij	*Xij	*	*	*	*	*	*	*	*	*	*	*	*	*	*Xij	*Xij	*	*	*	*	*	*
!	!	!	!	!	!	!	!	!	!	!	!	!	!	!	!	!	!	!LO:TX:t=P:problem=kreska pseudotaktowa	!	!	!	!	!
.	.	.	.	.	.	.	.	.	.	.	.	.	.	.	.	.	.	4e\	.	.	.	.	.
=22-	=22-	=22-	=22-	=22-	=22-	=22-	=22-	=22-	=22-	=22-	=22-	=22-	=22-	=22-	=22-	=22-	=22-	=22-	=22-	=22-	=22-	=22-	=22-
!	!	!	!LO:TX:t=P:problem=kreska pseudotaktowa	!	!	!	!	!	!	!	!	!	!	!	!	!	!	!	!	!	!	!	!
2r	.	.	1F	-li	-li	2r	.	.	.	.	.	4D\	C(ae)-	cae-	2A/	Ple-	Ple-	1f	ſunt	sunt	1dd	C(ae)-	cae-
*	*	*	*	*Xij	*Xij	*	*	*	*	*	*	*	*	*	*	*	*	*	*	*	*	*	*
.	.	.	.	.	.	.	.	.	4g\	.	.	4E\	.	.	.	.	.	.	.	.	.	.	.
2D/	et	et	.	.	.	2A/	ſunt	sunt	4a\	.	.	4F\	.	.	4D/	-ni	-ni	.	.	.	.	.	.
!	!	!	!	!	!	!	!	!	!LO:TX:t=P:problem=kreska pseudotaktowa	!	!	!	!	!	!LO:TX:t=P:problem=kreska pseudotaktowa	!	!	!	!	!	!	!	!
.	.	.	.	.	.	.	.	.	4b\	.	.	4D\	.	.	4d\	ſunt	sunt	.	.	.	.	.	.
!	!	!	!	!	!	!	!	!	!	!	!	!LO:TX:t=P:problem=kreska pseudotaktowa	!	!	!	!	!	!	!	!	!	!	!
4AA/	ter-	ter-	2r	.	.	2A/	C(ae)-	cae-	2cc\	-li	-li	1A	.	.	2c\	C(ae)-	cae-	2e\	C(ae)-	cae-	2ee\	-li	-li
*	*	*	*	*	*	*	*	*	*	*Xij	*Xij	*	*	*	*	*	*	*	*	*	*	*Xij	*Xij
4BB/	.	.	.	.	.	.	.	.	.	.	.	.	.	.	.	.	.	.	.	.	.	.	.
!	!	!	!	!	!	!	!	!	!	!	!	!	!	!	!	!	!	!LO:TX:t=P:problem=kreska pseudotaktowa	!	!	!	!	!
4C/	.	.	2.E/	et	et	4A/	-li	-li	1a\	et	et	.	.	.	1e\	-li	-li	2A/	-li	-li	2cc\	et	et
!LO:TX:t=P:problem=kreska pseudotaktowa	!	!	!	!	!	!LO:TX:t=P:problem=kreska pseudotaktowa	!	!	!	!	!	!	!	!	!	!	!	!	!	!	!	!	!
4AA/	.	.	.	.	.	4c/	et	et	.	.	.	.	.	.	.	.	.	.	.	.	.	.	.
=23-	=23-	=23-	=23-	=23-	=23-	=23-	=23-	=23-	=23-	=23-	=23-	=23-	=23-	=23-	=23-	=23-	=23-	=23-	=23-	=23-	=23-	=23-	=23-
*lig	*	*	*	*	*	*	*	*	*	*	*	*	*	*	*	*	*	*	*	*	*	*	*
!	!	!	!	!	!	!	!	!	!	!	!	!	!	!	!	!	!	!	!	!	!LO:TX:t=P:problem=kreska pseudotaktowa	!	!
1E	.	.	.	.	.	0e	ter-	ter-	.	.	.	2E\	-li	-li	.	.	.	2B/	.	.	0b	ter-	ter-
*	*	*	*	*	*	*	*	*	*	*	*	*	*Xij	*Xij	*	*	*	*	*	*	*	*	*
.	.	.	4F#X/	.	.	.	.	.	.	.	.	.	.	.	.	.	.	.	.	.	.	.	.
!	!	!	!	!	!	!	!	!	!	!	!	!	!	!	!LO:TX:t=P:problem=kreska pseudotaktowa	!	!	!LO:TX:t=P:problem=kreska pseudotaktowa	!	!	!	!	!
.	.	.	4G#X/	.	.	.	.	.	4g#X/	ter-	ter-	2E\	et	et	2B\	et	et	2e\	et	et	.	.	.
!	!	!	!LO:TX:t=P:problem=kreska pseudotaktowa	!	!	!	!	!	!LO:TX:t=P:problem=kreska pseudotaktowa	!	!	!	!	!	!	!	!	!	!	!	!	!	!
.	.	.	4A/	.	.	.	.	.	4f#X/	.	.	.	.	.	.	.	.	.	.	.	.	.	.
!	!	!	!	!	!	!	!	!	!	!	!	!LO:TX:t=P:problem=kreska pseudotaktowa	!	!	!	!	!	!	!	!	!	!	!
1EE	.	.	2B\	ter-	ter-	.	.	.	1g#	.	.	1E	ter-	ter-	1B	ter-	ter-	1e	ter-	ter-	.	.	.
.	.	.	2E/	.	.	.	.	.	.	.	.	.	.	.	.	.	.	.	.	.	.	.	.
*Xlig	*	*	*	*	*	*	*	*	*	*	*	*	*	*	*	*	*	*	*	*	*	*	*
=24-	=24-	=24-	=24-	=24-	=24-	=24-	=24-	=24-	=24-	=24-	=24-	=24-	=24-	=24-	=24-	=24-	=24-	=24-	=24-	=24-	=24-	=24-	=24-
!LO:TX:t=P:problem=kreska pseudotaktowa	!	!	!LO:TX:t=P:problem=kreska pseudotaktowa	!	!	!LO:TX:t=P:problem=kreska pseudotaktowa	!	!	!LO:TX:t=P:problem=kreska pseudotaktowa	!	!	!	!	!	!	!	!	!LO:MO:mod=2e	!	!	!LO:SIC:o=2cc,\	!	!
1AA	-ra	-ra	1E	-ra	-ra	1c	-ra	-ra	1a	-ra	-ra	2AA/	-ra	-ra	2A\	-ra	-ra	2.e\	-ra	-ra	2cc	-ra	-ra
*	*	*	*	*	*	*	*	*	*	*	*	*	*	*	*	*	*	*	*Xij	*Xij	*	*	*
!	!	!	!	!	!	!	!	!	!	!	!	!	!	!	!	!	!	!LO:MO:null:mod=4r	!	!	!	!	!
.	.	.	.	.	.	.	.	.	.	.	.	2.A\	glo-	glo-	4r	.	.	.	.	.	2.cc\	glo-	glo-
.	.	.	.	.	.	.	.	.	.	.	.	.	.	.	2e\	glo-	glo-	2a\	glo-	glo-	.	.	.
!LO:TX:t=P:problem=kreska pseudotaktowa	!	!	!	!	!	!	!	!	!	!	!	!	!	!	!	!	!	!	!	!	!	!	!
!LO:PB:g=original	!	!	!	!	!	!	!	!	!	!	!	!	!	!	!	!	!	!	!	!	!	!	!
0r	.	.	0r	.	.	0r	.	.	0r	.	.	.	.	.	.	.	.	.	.	.	.	.	.
.	.	.	.	.	.	.	.	.	.	.	.	4A\	-ri-	-ri-	4e\	-ri-	-ri-	4a\	-ri-	-ri-	4cc\	-ri-	-ri-
!	!	!	!	!	!	!	!	!	!	!	!	!LO:TX:t=P:problem=kreska pseudotaktowa	!	!	!	!	!	!LO:TX:t=P:problem=kreska pseudotaktowa	!	!	!LO:TX:t=P:problem=kreska pseudotaktowa	!	!
!	!	!	!	!	!	!	!	!	!	!	!	!	!	!	!	!	!	!LO:LB:g=original	!	!	!	!	!
.	.	.	.	.	.	.	.	.	.	.	.	2E\	-a	-a	2e\	-a	-a	2g\	-a	-a	2b\	-a	-a
=25-	=25-	=25-	=25-	=25-	=25-	=25-	=25-	=25-	=25-	=25-	=25-	=25-	=25-	=25-	=25-	=25-	=25-	=25-	=25-	=25-	=25-	=25-	=25-
.	.	.	.	.	.	.	.	.	.	.	.	1F	tu-	tu-	1c	tu-	tu-	1f	tu-	tu-	1a	tu-	tu-
!	!	!	!	!	!	!	!	!	!	!	!	!LO:TX:t=P:problem=kreska pseudotaktowa	!	!	!LO:TX:t=P:problem=kreska pseudotaktowa	!	!	!LO:TX:t=P:problem=kreska pseudotaktowa	!	!	!LO:TX:t=P:problem=kreska pseudotaktowa	!	!
2r	.	.	2r	.	.	4r	.	.	2r	.	.	1C	-a	-a	1c	-a	-a	1e	-a	-a	1g	-a	-a
.	.	.	.	.	.	4c/	o-	O-	.	.	.	.	.	.	.	.	.	.	.	.	.	.	.
!LO:TX:t=P:problem=kreska pseudotaktowa	!	!	!LO:TX:t=P:problem=kreska pseudotaktowa	!	!	!	!	!	!	!	!	!	!	!	!	!	!	!	!	!	!	!	!
2C/	o-	O-	2c\	o-	O-	1g\	-ſan-	-san-	2cc\	O-	O-	.	.	.	.	.	.	.	.	.	.	.	.
!	!	!	!	!	!	!	!	!	!	!	!	!	!	!	!LO:LB:g=original	!	!	!	!	!	!LO:LB:g=original	!	!
=26-	=26-	=26-	=26	=26-	=26-	=26-	=26-	=26-	=26-	=26-	=26-	=26-	=26-	=26-	=26-	=26-	=26-	=26-	=26-	=26-	=26-	=26-	=26-
2c\	-ſan-	-san-	2e\	-ſan-	-san-	.	.	.	2cc\	-ſan-	-san-	0r	.	.	0r	.	.	0r	.	.	0r	.	.
!LO:TX:t=P:problem=kreska pseudotaktowa	!	!	!	!	!	!LO:TX:t=P:problem=kreska pseudotaktowa	!	!	!LO:TX:t=P:problem=kreska pseudotaktowa	!	!	!	!	!	!	!	!	!	!	!	!	!	!
2F\	-na	-na	2c\	-na	-na	2f\	-na	-na	2a\	-na	-na	.	.	.	.	.	.	.	.	.	.	.	.
4G\	in	in	4B\	in	in	4d\	in	in	4g\	in	in	.	.	.	.	.	.	.	.	.	.	.	.
!LO:SIC:v:o=4B-X\	!	!	!	!	!	!	!	!	!	!	!	!	!	!	!	!	!	!	!	!	!	!	!
4B\	ex-	ex-	4d\	ex-	ex-	4d\	ex-	ex-	4g\	ex-	ex-	.	.	.	.	.	.	.	.	.	.	.	.
2A\	-cel-	-cel-	2c#X\	-cel-	-cel-	2e\	-cel-	-cel-	2a\	-cel-	-cel-	.	.	.	.	.	.	.	.	.	.	.	.
=27-	=27-	=27-	=27-	=27-	=27-	=27-	=27-	=27-	=27-	=27-	=27-	=27-	=27-	=27-	=27-	=27-	=27-	=27-	=27-	=27-	=27-	=27-	=27-
!LO:TX:t=P:problem=kreska pseudotaktowa	!	!	!LO:TX:t=P:problem=kreska pseudotaktowa	!	!	!LO:TX:t=P:problem=kreska pseudotaktowa	!	!	!LO:TX:t=P:problem=kreska pseudotaktowa	!	!	!	!	!	!	!	!	!	!	!	!	!	!
1D	-ſis	-sis	1d	-ſis	-sis	1f#X	-ſis	-sis	1a	-ſis	-sis	2r	.	.	4r	.	.	2r	.	.	2r	.	.
.	.	.	.	.	.	.	.	.	.	.	.	.	.	.	4A/	O-	O-	.	.	.	.	.	.
!	!	!	!	!	!	!	!	!	!	!	!	!LO:TX:t=P:problem=kreska pseudotaktowa	!	!	!	!	!	!LO:TX:t=P:problem=kreska pseudotaktowa	!	!	!LO:TX:t=P:problem=kreska pseudotaktowa	!	!
.	.	.	.	.	.	.	.	.	.	.	.	2D/	O-	O-	1d	-ſan-	-san-	2f#X\	o-	O-	2a\	o-	O-
!	!	!	!	!	!	!	!	!	!LO:LB:g=original	!	!	!	!	!	!	!	!	!	!	!	!	!	!
!	!	!	!	!	!	!	!	!	!LO:TX:t=P:problem=kreska pseudotaktowa	!	!	!	!	!	!	!	!	!	!	!	!	!	!
1r	.	.	1r	.	.	1r	.	.	1r	.	.	2G\	-ſan-	-san-	.	.	.	2g\	-ſan-	-san-	2b\	-ſan-	-san-
!	!	!	!	!	!	!	!	!	!	!	!	!	!	!	!LO:TX:t=P:problem=kreska pseudotaktowa	!	!	!LO:TX:t=P:problem=kreska pseudotaktowa	!	!	!	!	!
.	.	.	.	.	.	.	.	.	.	.	.	2C/	-na	-na	2e\	-na	-na	2g\	-na	-na	2cc\	-na	-na
=28-	=28-	=28-	=28-	=28-	=28-	=28-	=28-	=28-	=28-	=28-	=28-	=28-	=28-	=28-	=28-	=28-	=28-	=28-	=28-	=28-	=28-	=28-	=28-
2r	.	.	2r	.	.	2r	.	.	2r	.	.	4D/	in	in	4d\	in	in	4f\	in	in	4a\	in	in
.	.	.	.	.	.	.	.	.	.	.	.	4F\	ex-	ex-	4A\	ex-	ex-	4d\	ex-	ex-	4a\	ex-	ex-
*	*ij	*ij	*	*ij	*ij	*	*ij	*ij	*	*ij	*ij	*	*	*	*	*	*	*	*	*	*	*	*
!LO:TX:t=P:problem=kreska pseudotaktowa	!	!	!LO:TX:t=P:problem=kreska pseudotaktowa	!	!	!	!	!	!	!	!	!LO:TX:t=P:problem=kreska pseudotaktowa	!	!	!LO:TX:t=P:problem=kreska pseudotaktowa	!	!	!LO:TX:t=P:problem=kreska pseudotaktowa	!	!	!LO:TX:t=P:problem=kreska pseudotaktowa	!	!
!	!	!	!	!	!	!	!	!	!LO:N:vis=2	!	!	!	!	!	!	!	!	!	!	!	!	!	!
!	!	!	!	!	!	!	!	!	!LO:MO:mod=2b	!	!	!	!	!	!	!	!	!	!	!	!	!	!
2E\	o-	O-	2B\	o-	O-	2.e\	o-	O-	4b\	o-	O-	2E\	-cel-	-cel-	2B\	-cel-	-cel-	2e\	-cel-	-cel-	2g#X\	-cel-	-cel-
!	!	!	!	!	!	!	!	!	!LO:MO:mod=.	!	!	!	!	!	!	!	!	!	!	!	!	!	!
.	.	.	.	.	.	.	.	.	4ryy	.	.	.	.	.	.	.	.	.	.	.	.	.	.
!	!	!	!LO:LB:g=original	!	!	!	!	!	!	!	!	!	!	!	!	!	!	!	!	!	!	!	!
2A\	-ſan-	-san-	4.c\	-ſan-	-san-	.	.	.	4.ee\	-ſan-	-san-	2AA/	-ſis	-sis	2A/	-ſis	-sis	2e\	-ſis	-sis	2a\	-ſis	-sis
.	.	.	.	.	.	2a\	-ſan-	-san-	.	.	.	.	.	.	.	.	.	.	.	.	.	.	.
.	.	.	8d\	.	.	.	.	.	8dd\	.	.	.	.	.	.	.	.	.	.	.	.	.	.
!LO:TX:t=P:problem=kreska pseudotaktowa	!	!	!	!	!	!	!	!	!LO:TX:t=P:problem=kreska pseudotaktowa	!	!	!LO:TX:t=P:problem=kreska pseudotaktowa	!	!	!LO:TX:t=P:problem=kreska pseudotaktowa	!	!	!LO:TX:t=P:problem=kreska pseudotaktowa	!	!	!LO:TX:t=P:problem=kreska pseudotaktowa	!	!
!	!	!	!	!	!	!	!	!	!	!	!	!LO:LB:g=original	!	!	!	!	!	!	!	!	!	!	!
2E\	-na	-na	4.e\	-na	-na	.	.	.	2cc\	-na	-na	2r	.	.	2r	.	.	2r	.	.	2r	.	.
!	!	!	!	!	!	!LO:TX:t=P:problem=kreska pseudotaktowa	!	!	!	!	!	!	!	!	!	!	!	!	!	!	!	!	!
.	.	.	.	.	.	4g\	-na	-na	.	.	.	.	.	.	.	.	.	.	.	.	.	.	.
!	!	!	!LO:TX:t=P:problem=kreska pseudotaktowa	!	!	!	!	!	!	!	!	!	!	!	!	!	!	!	!	!	!	!	!
.	.	.	8d\	.	.	.	.	.	.	.	.	.	.	.	.	.	.	.	.	.	.	.	.
!	!	!	!	!	!	!LO:LB:g=original	!	!	!	!	!	!	!	!	!	!	!	!	!	!	!	!	!
=29-	=29-	=29-	=29-	=29-	=29-	=29-	=29-	=29-	=29-	=29-	=29-	=29-	=29-	=29-	=29-	=29-	=29-	=29-	=29-	=29-	=29-	=29-	=29-
!	!	!	!	!	!	!	!	!	!LO:SIC:v:o=4b\	!	!	!	!	!	!	!	!	!	!	!	!	!	!
4F\	in	in	4c\	in	in	4f\	in	in	4cc\	in	in	2r	.	.	2r	.	.	2r	.	.	2r	.	.
!	!	!	!	!	!	!	!	!	!LO:SIC:v:o=4a\	!	!	!	!	!	!	!	!	!	!	!	!	!	!
4G\	ex-	ex-	4B\	ex-	ex-	4d\	ex-	ex-	4b\	ex-	ex-	.	.	.	.	.	.	.	.	.	.	.	.
*	*	*	*	*	*	*	*	*	*	*	*	*	*ij	*ij	*	*	*	*	*	*	*	*ij	*ij
!	!	!	!LO:TX:t=P:problem=kreska pseudotaktowa	!	!	!LO:TX:t=P:problem=kreska pseudotaktowa	!	!	!	!	!	!	!	!	!	!	!	!	!	!	!LO:TX:t=P:problem=kreska pseudotaktowa	!	!
2D/	-cel-	-cel-	2A/	-cel-	-cel-	2d\	-cel-	-cel-	2f#X/	-cel-	-cel-	2D/	O-	O-	4A/	o-	O-	2.d\	o-	O-	2a\	o-	O-
.	.	.	.	.	.	.	.	.	.	.	.	.	.	.	2d\	-ſan-	-san-	.	.	.	.	.	.
2GG/	-ſis	-sis	2G/	-ſis	-sis	2d\	-ſis	-sis	2g/	-ſis	-sis	2G\	-ſan-	-san-	.	.	.	.	.	.	4b\	-ſan-	-san-
*	*	*	*	*Xij	*Xij	*	*	*	*	*	*	*	*	*	*	*	*	*	*	*	*	*	*
.	.	.	.	.	.	.	.	.	.	.	.	.	.	.	2B\	-na	-na	2g\	-ſan-	-san-	4dd\	.	.
!LO:TX:t=P:problem=kreska pseudotaktowa	!	!	!LO:TX:t=P:problem=kreska pseudotaktowa	!	!	!LO:TX:t=P:problem=kreska pseudotaktowa	!	!	!LO:TX:t=P:problem=kreska pseudotaktowa	!	!	!LO:TX:t=P:problem=kreska pseudotaktowa	!	!	!	!	!	!	!	!	!LO:TX:t=P:problem=kreska pseudotaktowa	!	!
2r	.	.	2r	.	.	2r	.	.	2r	.	.	2E\	-na	-na	.	.	.	.	.	.	2ee\	-na	-na
!	!	!	!	!	!	!	!	!	!	!	!	!	!	!	!	!	!	!LO:TX:t=P:problem=kreska pseudotaktowa	!	!	!	!	!
.	.	.	.	.	.	.	.	.	.	.	.	.	.	.	2c\	in	in	4g\	-na	-na	.	.	.
=30-	=30-	=30-	=30-	=30-	=30-	=30-	=30-	=30-	=30-	=30-	=30-	=30-	=30-	=30-	=30-	=30-	=30-	=30-	=30-	=30-	=30-	=30-	=30-
1r	.	.	1r	.	.	1r	.	.	1r	.	.	4F\	in	in	.	.	.	4f\	in	in	4a\	in	in
.	.	.	.	.	.	.	.	.	.	.	.	4A\	ex-	ex-	4c\	ex-	ex-	4e\	.	.	2cc\	ex-	ex-
!	!	!	!	!	!	!	!	!	!	!	!	!LO:TX:t=P:problem=kreska pseudotaktowa	!	!	!LO:TX:t=P:problem=kreska pseudotaktowa	!	!	!	!	!	!	!	!
.	.	.	.	.	.	.	.	.	.	.	.	2G\	-cel-	-cel-	2d\	-cel-	-cel-	2g\	ex-	ex-	.	.	.
.	.	.	.	.	.	.	.	.	.	.	.	.	.	.	.	.	.	.	.	.	4b\	.	.
*	*	*	*	*ij	*ij	*	*	*	*	*	*	*	*	*	*	*	*	*	*	*	*	*	*
!LO:TX:t=P:problem=kreska pseudotaktowa	!	!	!	!	!	!	!	!	!	!	!	!	!	!	!	!	!	!	!	!	!	!	!
1C	o-	O-	1G	O-	O-	2r	.	.	1ee	o-	O-	1.C	-ſis	-sis	2c\	-ſis	-sis	2e\	-cel-	-cel-	1.cc	-cel-	-cel-
*	*	*	*	*	*	*	*	*	*	*	*	*	*Xij	*Xij	*	*	*	*	*	*	*	*	*
!	!	!	!	!	!	!LO:TX:t=P:problem=kreska pseudotaktowa	!	!	!	!	!	!	!	!	!LO:TX:t=P:problem=kreska pseudotaktowa	!	!	!	!	!	!	!	!
.	.	.	.	.	.	2e\	o-	O-	.	.	.	.	.	.	2.c\	in	in	2g\	-ſis	-sis	.	.	.
=31-	=31-	=31-	=31-	=31-	=31-	=31-	=31-	=31-	=31-	=31-	=31-	=31-	=31-	=31-	=31-	=31-	=31-	=31-	=31-	=31-	=31-	=31-	=31-
*	*	*	*	*	*	*	*	*	*	*	*	*	*	*	*	*	*	*	*ij	*ij	*	*	*
2C/	-ſan-	-san-	2G/	-ſan-	-san-	2e\	-ſan-	-san-	2ee\	-ſan-	-san-	.	.	.	.	.	.	1.g	in	in	.	.	.
.	.	.	.	.	.	.	.	.	.	.	.	.	.	.	4G/	ex-	ex-	.	.	.	.	.	.
!LO:TX:t=P:problem=kreska pseudotaktowa	!	!	!LO:TX:t=P:problem=kreska pseudotaktowa	!	!	!LO:TX:t=P:problem=kreska pseudotaktowa	!	!	!LO:TX:t=P:problem=kreska pseudotaktowa	!	!	!LO:TX:t=P:problem=kreska pseudotaktowa	!	!	!LO:TX:t=P:problem=kreska pseudotaktowa	!	!	!	!	!	!LO:TX:t=P:problem=kreska pseudotaktowa	!	!
2BB/	-na	-na	2G/	-na	-na	2g\	-na	-na	2dd\	-na	-na	2G\	O-	O-	2B\	-cel-	-cel-	.	.	.	2dd\	-ſis	-sis
*	*	*	*	*	*	*	*	*	*	*	*	*	*	*	*	*	*	*	*	*	*	*Xij	*Xij
2C/	in	in	2G/	in	in	2.e\	in	in	2cc\	in	in	2E\	-ſan-	-san-	2.G/	.	.	.	.	.	2ee\	O-	O-
2C/	ex-	ex-	2E/	ex-	ex-	.	.	.	2cc\	ex-	ex-	4C/	-na	-na	.	.	.	4g\	ex-	ex-	4ee\	-ſan-	-san-
*	*	*	*	*	*	*	*	*	*	*	*	*	*ij	*ij	*	*	*	*	*	*	*	*	*
!	!	!	!	!	!	!	!	!	!	!	!	!LO:TX:t=P:problem=kreska pseudotaktowa	!	!	!LO:TX:t=P:problem=kreska pseudotaktowa	!	!	!LO:TX:t=P:problem=kreska pseudotaktowa	!	!	!	!	!
.	.	.	.	.	.	4c\	ex-	ex-	.	.	.	4C/	o-	o-	4A\	-ſis	.	4g\	-cel-	-cel-	4ee\	-na	-na
=32-	=32-	=32-	=32-	=32-	=32-	=32-	=32-	=32-	=32-	=32-	=32-	=32-	=32-	=32-	=32-	=32-	=32-	=32-	=32-	=32-	=32-	=32-	=32-
2GG/	-cel-	-cel-	2G/	-cel-	-cel-	4d\	-cel-	-cel-	2b\	-cel-	-cel-	2G\	-ſan-	-san-	2B\	.	-sis	2g\	-ſis	-sis	2dd\	o-	o-
*	*	*	*	*	*	*	*	*	*	*	*	*	*	*	*	*	*	*	*Xij	*Xij	*	*	*
.	.	.	.	.	.	4g\	.	.	.	.	.	.	.	.	.	.	.	.	.	.	.	.	.
!LO:TX:t=P:problem=kreska pseudotaktowa	!	!	!LO:TX:t=P:problem=kreska pseudotaktowa	!	!	!LO:TX:t=P:problem=kreska pseudotaktowa	!	!	!LO:TX:t=P:problem=kreska pseudotaktowa	!	!	!	!	!	!	!	!	!	!	!	!	!	!
2C/	-ſis	-sis	2G/	-ſis	-sis	2e\	.	.	2cc\	-ſis	-sis	4C/	-na	-na	4r	.	.	4g\	O-	O-	4ee\	-ſan-	-san-
!	!	!	!	!	!	!	!	!	!	!	!	!LO:TX:t=P:problem=kreska pseudotaktowa	!	!	!LO:TX:t=P:problem=kreska pseudotaktowa	!	!	!LO:TX:t=P:problem=kreska pseudotaktowa	!	!	!LO:TX:t=P:problem=kreska pseudotaktowa	!	!
.	.	.	.	.	.	.	.	.	.	.	.	4C/	o-	o-	4c\	o-	O-	4g\	-ſan-	-san-	4ee\	-na	-na
2C/	o-	O-	2G/	o-	O-	2e\	-ſis	-sis	2cc\	o-	O-	2E\	-ſan-	-san-	4c\	-ſan-	-san-	2g\	-na	-na	2ee\	in	in
.	.	.	.	.	.	.	.	.	.	.	.	.	.	.	4c\	-na	-na	.	.	.	.	.	.
!	!	!	!	!	!	!	!	!	!	!	!	!	!	!	!	!	!	!LO:TX:t=P:problem=kreska pseudotaktowa	!	!	!	!	!
4.GG/	-ſan-	-san-	4.G/	-ſan-	-san-	4r	.	.	4.b\	-ſan-	-san-	2G\	-na	-na	4d\	in	in	2g\	in	in	2dd\	.	.
*	*	*	*	*	*	*	*	*	*	*	*	*	*Xij	*Xij	*	*	*	*	*	*	*	*	*
!	!	!	!	!	!	!	!	!	!	!	!	!	!	!	!LO:TX:t=P:problem=kreska pseudotaktowa	!	!	!	!	!	!	!	!
.	.	.	.	.	.	2d\	in	in	.	.	.	.	.	.	4B\	ex-	ex-	.	.	.	.	.	.
!LO:TX:t=P:problem=kreska pseudotaktowa	!	!	!LO:TX:t=P:problem=kreska pseudotaktowa	!	!	!	!	!	!LO:TX:t=P:problem=kreska pseudotaktowa	!	!	!	!	!	!	!	!	!	!	!	!	!	!
8GG/	-na	-na	8G/	-na	-na	.	.	.	8b\	-na	-na	.	.	.	.	.	.	.	.	.	.	.	.
=33-	=33-	=33-	=33-	=33-	=33-	=33-	=33-	=33-	=33-	=33-	=33-	=33-	=33-	=33-	=33-	=33-	=33-	=33-	=33-	=33-	=33-	=33-	=33-
4D/	in	in	4A\	in	in	.	.	.	4a\	in	in	4D\	in	in	8d\L	-cel-	-cel-	4f\	ex-	ex-	4dd\	ex-	ex-
.	.	.	.	.	.	.	.	.	.	.	.	.	.	.	8A\	.	.	.	.	.	.	.	.
4AA/	ex-	ex-	4A\	ex-	ex-	4e\	ex-	ex-	4a\	ex-	ex-	4A\	ex-	ex-	8c\	.	.	4e\	.	.	4cc\	.	.
.	.	.	.	.	.	.	.	.	.	.	.	.	.	.	8d\J	.	.	.	.	.	.	.	.
!LO:TX:t=P:problem=kreska pseudotaktowa	!	!	!	!	!	!LO:TX:t=P:problem=kreska pseudotaktowa	!	!	!LO:TX:t=P:problem=kreska pseudotaktowa	!	!	!LO:TX:t=P:problem=kreska pseudotaktowa	!	!	!	!	!	!LO:TX:t=P:problem=kreska pseudotaktowa	!	!	!LO:TX:t=P:problem=kreska pseudotaktowa	!	!
!	!	!	!	!	!	!	!	!	!	!	!	!	!	!	!LO:LB:g=original	!	!	!	!	!	!	!	!
2E\	-cel-	-cel-	4B\	-cel-	-cel-	2e\	-cel-	-cel-	2g#X\	-cel-	-cel-	2E\	-cel-	-cel-	4d\	.	.	2e\	-cel-	-cel-	2b\	-cel-	-cel-
!	!	!	!LO:TX:t=P:problem=kreska pseudotaktowa	!	!	!	!	!	!	!	!	!	!	!	!	!	!	!	!	!	!	!	!
.	.	.	4E/	.	.	.	.	.	.	.	.	.	.	.	4B\	.	.	.	.	.	.	.	.
2AA/	-ſis	-sis	2E/	-ſis	-sis	2c/	-ſis	-sis	2a\	-ſis	-sis	2A\	-ſis	-sis	2A/	-sis	-sis	2e\	-ſis	-sis	2cc\	-ſis	-sis
*	*	*	*	*	*	*	*	*	*	*	*	*	*	*	*	*ij	*ij	*	*ij	*ij	*	*ij	*ij
!LO:TX:t=P:problem=kreska pseudotaktowa	!	!	!LO:TX:t=P:problem=kreska pseudotaktowa	!	!	!LO:TX:t=P:problem=kreska pseudotaktowa	!	!	!LO:TX:t=P:problem=kreska pseudotaktowa	!	!	!LO:TX:t=P:problem=kreska pseudotaktowa	!	!	!LO:TX:t=P:problem=kreska pseudotaktowa	!	!	!LO:TX:t=P:problem=kreska pseudotaktowa	!	!	!LO:TX:t=P:problem=kreska pseudotaktowa	!	!
2AA/	o-	O-	2E/	o-	O-	2c/	o-	O-	2a\	o-	O-	2A\	o-	O-	2A/	o-	O-	2e\	o-	O-	2cc\	o-	O-
=34-	=34-	=34-	=34-	=34-	=34-	=34-	=34-	=34-	=34-	=34-	=34-	=34-	=34-	=34-	=34-	=34-	=34-	=34-	=34-	=34-	=34-	=34-	=34-
!	!	!	!	!	!	!	!	!	!	!	!	!	!	!	!	!	!	!LO:LB:g=original	!	!	!	!	!
4.E\	-ſan-	-san-	4.E/	-ſan-	-san-	4.B/	-ſan-	-san-	4.b\	-ſan-	-san-	4.E\	-ſan-	-san-	4.G#X/	-ſan-	-san-	4.e\	-ſan-	-san-	4.ee\	-ſan-	-san-
8E\	-na	-na	8E/	-na	-na	8B/	-na	-na	8b\	-na	-na	8E\	-na	-na	8G#/	-na	-na	8e\	-na	-na	8ee\	-na	-na
4E\	in	in	4E/	in	in	4B/	in	in	4b\	in	in	4E\	in	in	4G#/	in	in	4e\	in	in	4ee\	in	in
!LO:TX:t=P:problem=kreska pseudotaktowa	!	!	!	!	!	!LO:TX:t=P:problem=kreska pseudotaktowa	!	!	!LO:TX:t=P:problem=kreska pseudotaktowa	!	!	!	!	!	!LO:TX:t=P:problem=kreska pseudotaktowa	!	!	!	!	!	!	!	!
4E\	ex-	ex-	4E/	ex-	ex-	4B/	ex-	ex-	4b\	ex-	ex-	4E\	ex-	ex-	4G#/	ex-	ex-	4e\	ex-	ex-	4ee\	ex-	ex-
*	*	*	*	*	*	*	*	*	*	*	*	*lig	*	*	*	*	*	*	*	*	*	*	*
0AA	-cel-	-cel-	0E	-cel-	-cel-	1.c	-cel-	-cel-	0a	-cel-	-cel-	1A	-cel-	-cel-	1.A	-cel-	-cel-	0e	-cel-	-cel-	0cc	-cel-	-cel-
=35-	=35-	=35-	=35-	=35-	=35-	=35-	=35-	=35-	=35-	=35-	=35-	=35-	=35-	=35-	=35-	=35-	=35-	=35-	=35-	=35-	=35-	=35-	=35-
.	.	.	.	.	.	.	.	.	.	.	.	1AA	.	.	.	.	.	.	.	.	.	.	.
.	.	.	.	.	.	2A/	.	.	.	.	.	.	.	.	2E/	.	.	.	.	.	.	.	.
*	*	*	*	*	*	*	*	*	*	*	*	*Xlig	*	*	*	*	*	*	*	*	*	*	*
!LO:N:vis=0	!	!	!LO:N:vis=0	!	!	!LO:N:vis=0	!	!	!LO:N:vis=0	!	!	!LO:N:vis=0	!	!	!LO:N:vis=0	!	!	!LO:N:vis=0	!	!	!LO:N:vis=	!	!
!LO:SIC:o=1EE	!	!	!LO:SIC:o=1E	!	!	!LO:SIC:o=1B	!	!	!	!	!	!LO:SIC:o=1E	!	!	!	!	!	!LO:SIC:v:o=1f;	!	!	!	!	!
1EE;	-ſis	-sis	1E;	-ſis	-sis	1B;	-ſis	-sis	1g#X;	-ſis	-sis	1E;	-ſis	-sis	1G#X;	-ſis	-sis	1e;	-ſis	-sis	1b;	-ſis	-sis
*	*Xij	*Xij	*	*Xij	*Xij	*	*Xij	*Xij	*	*Xij	*Xij	*	*	*	*	*Xij	*Xij	*	*Xij	*Xij	*	*Xij	*Xij
==	==	==	==	==	==	==	==	==	==	==	==	==	==	==	==	==	==	==	==	==	==	==	==
*-	*-	*-	*-	*-	*-	*-	*-	*-	*-	*-	*-	*-	*-	*-	*-	*-	*-	*-	*-	*-	*-	*-	*-
!!!system-decoration: [(g1)][(g2)]
!!!ENC: Kamil Watkowski
!!!END: 2021-08-07
!!!ENC-modern: Marta Lawrence
!!!END-modern: 2023-09-06
!!!YEC: Copyright 2022 Narodowy Instytut Fryderyka Chopina (https://polishscores.org)
!!!YEM: License CC-BY-4.0 (https://creativecommons.org/licenses/by/4.0)
!!!filter-modern: sic -sq | tie -s | shed -e "s/-//B" | autostem -r | shed -e "s/TX(.*):t=P:/tx$1:t=P:/LG" | shed -e "s/^(\d+[\/\\]right)/$1yy/I; s/^(\d+[\/\\]left)/$1yy/I" | shed -k -e "s/([#-])[X]/$1/g; s/[ny]/$1/g;" | shed -e "s/LO:N:/LO:n:$1/L" | modori -m
